src/face-positive.svg

<svg viewBox="0 0 16 16" fill="none" xmlns="http://www.w3.org/2000/svg"><path fill-rule="evenodd" clip-rule="evenodd" d="M8 14C11.3137 14 14 11.3137 14 8C14 4.68629 11.3137 2 8 2C4.68629 2 2 4.68629 2 8C2 11.3137 4.68629 14 8 14ZM8 15C11.866 15 15 11.866 15 8C15 4.13401 11.866 1 8 1C4.13401 1 1 4.13401 1 8C1 11.866 4.13401 15 8 15Z" fill="#111111"/><path fill-rule="evenodd" clip-rule="evenodd" d="M9.37389 10.1295C9.7134 9.8749 9.93475 9.50538 9.93475 8.98878H10.9348C10.9348 9.84174 10.5474 10.4994 9.97388 10.9295C9.41456 11.349 8.6946 11.5431 7.99997 11.5431C7.30534 11.5431 6.58538 11.349 6.02606 10.9295C5.45253 10.4994 5.06519 9.84173 5.06519 8.98877L6.06519 8.98877C6.06519 9.50538 6.28654 9.8749 6.62606 10.1295C6.97978 10.3948 7.47721 10.5431 7.99997 10.5431C8.52273 10.5431 9.02017 10.3948 9.37389 10.1295Z" fill="#111111"/><path d="M6.47831 6.17354C6.47831 6.6778 6.06953 7.08659 5.56527 7.08659C5.06101 7.08659 4.65222 6.6778 4.65222 6.17354C4.65222 5.66928 5.06101 5.2605 5.56527 5.2605C6.06953 5.2605 6.47831 5.66928 6.47831 6.17354Z" fill="#111111"/><path d="M11.3479 6.17354C11.3479 6.6778 10.9391 7.08659 10.4348 7.08659C9.93057 7.08659 9.52179 6.6778 9.52179 6.17354C9.52179 5.66928 9.93057 5.2605 10.4348 5.2605C10.9391 5.2605 11.3479 5.66928 11.3479 6.17354Z" fill="#111111"/></svg>

<svg viewBox="0 0 16 16" fill="none" xmlns="http://www.w3.org/2000/svg"><path fill-rule="evenodd" clip-rule="evenodd" d="M8 14A6 6 0 1 0 8 2a6 6 0 0 0 0 12Zm0 1A7 7 0 1 0 8 1a7 7 0 0 0 0 14Z" fill="#111111"/><path fill-rule="evenodd" clip-rule="evenodd" d="M9.374 10.13c.34-.255.56-.625.56-1.141h1c0 .853-.387 1.51-.96 1.94-.56.42-1.28.614-1.974.614-.695 0-1.415-.194-1.974-.613a2.356 2.356 0 0 1-.96-1.941h1c0 .516.22.886.56 1.14.354.266.851.414 1.374.414.523 0 1.02-.148 1.374-.413Z" fill="#111111"/><path d="M6.478 6.174a.913.913 0 1 1-1.826 0 .913.913 0 0 1 1.826 0Zm4.87 0a.913.913 0 1 1-1.826 0 .913.913 0 0 1 1.826 0Z" fill="#111111"/></svg>
